X:35
T:Qual Pourtoro L'Dina' L'Boui?
M:2/4
L:1/8
N:Chant de moisson
N:Pas trop vite
N:La Bourre 4th edition 1929, page 47
Z:Steve Mansfield www.lesession.co.uk May 2012
K:Gm
c d f ||[M:3/4] e2 c2 d B ||[M:2/4] c c d f |
[M:3/4] e2 c2 d B ||[M:2/4] !fermata! c3 G ||[M:3/4] c e d f e d |
[M:2/4] c2 c d/ e/ | d3 G | c e d f | e c d2 | !fermata! c4 |]
<end>
<start>
